X:295
T: LASS DICH SCHNEIDEN
N: B0773
O: Europa, Mitteleuropa, Deutschland, Westfalen, Waldbroel
R: Stande - Lied, Bauern, religioes
M: 6/8
L: 1/8
K: F
 | A2GF2C | c2BA2F |
G2GGcA | G3z2z |
A2=Bc2c | A2=Bc2c |
f2A_BAG | F3z2z

@@@ Tune index: 2513
